X:1
T:[ID 7-112]
T:[ID 7-112]
T:Bezeichnung standardisiert: Anglaise Angeloise \"Ahnlich in dieser Quelle: ID 8-40; ID 4-48vb;
T:Urheber unbekannt Erstbeleg: 1776-1791 (Datum in der schriftlichen Quelle) Datum in der hier transkribierten schriftlichen Quelle: 1792
C:Urheber unbekannt
C:Erstbeleg: 1776-1791 (Datum in der schriftlichen Quelle)
C:Datum in der hier transkribierten schriftlichen Quelle: 1792
L:1/8
M:2/4
K:G
V:1 treble 
V:1
 dBdB | dBBd | cAAc | Bd d2 | dBdB | dBBd | cAGF | G2 G,2 :: ABcA | Bgfg | ABcA | Bg Tg2 | dBdB | %13
 dBBd | cAGF | G2 G,2 :: G3 A | B/c/d/c/ Bd | c2 Ac | Bgfg | G3 A | B/c/d/c/ Bd | c/d/e/c/ AF | %23
 G2 G,2 :| %24

